svgs/regular/square-9.svg

<svg xmlns="http://www.w3.org/2000/svg" viewBox="0 0 448 512"><!-- Font Awesome Pro 6.0.0-alpha2 by @fontawesome - https://fontawesome.com License - https://fontawesome.com/license (Commercial License) --><path d="M384 32H64C28.654 32 0 60.654 0 96V416C0 451.346 28.654 480 64 480H384C419.346 480 448 451.346 448 416V96C448 60.654 419.346 32 384 32ZM400 416C400 424.822 392.822 432 384 432H64C55.178 432 48 424.822 48 416V96C48 87.178 55.178 80 64 80H384C392.822 80 400 87.178 400 96V416ZM224 128C171.062 128 128 171.062 128 224C128 267.859 157.732 304.533 197.979 315.963L168.219 341.906C158.25 350.625 157.187 365.781 165.906 375.781C170.656 381.219 177.312 384 184 384C189.594 384 195.219 382.062 199.781 378.094L279.719 308.406C292.451 297.289 320 265.301 320 224C320 171.062 276.938 128 224 128ZM270.031 237.719C264 257.906 245.062 272 224 272C197.531 272 176 250.469 176 224S197.531 176 224 176S272 197.531 272 224C272 228.719 271.344 233.312 270.031 237.719Z"/></svg>

<svg xmlns="http://www.w3.org/2000/svg" viewBox="0 0 448 512"><!--! Font Awesome Pro 6.4.0 by @fontawesome - https://fontawesome.com License - https://fontawesome.com/license (Commercial License) Copyright 2023 Fonticons, Inc. --><path d="M384 80c8.8 0 16 7.2 16 16V416c0 8.8-7.2 16-16 16H64c-8.8 0-16-7.2-16-16V96c0-8.8 7.2-16 16-16H384zM64 32C28.7 32 0 60.7 0 96V416c0 35.3 28.7 64 64 64H384c35.3 0 64-28.7 64-64V96c0-35.3-28.7-64-64-64H64zM224 272a48 48 0 1 1 0-96 48 48 0 1 1 0 96zm-26 44.4l-29.6 25.4c-10.1 8.6-11.2 23.8-2.6 33.8s23.8 11.2 33.8 2.6l81.6-70C305.8 287.2 320 256.4 320 224c0-53-43-96-96-96s-96 43-96 96c0 44 29.6 81.1 70 92.4z"/></svg>
